projects/ironcore/stacked/color/ironcore-stacked-color.svg

<?xml version="1.0" encoding="UTF-8" standalone="no"?>
<svg
   width="400px"
   height="400px"
   viewBox="0 0 400 400"
   version="1.1"
   id="svg12"
   sodipodi:docname="ironcore-stacked-color.svg"
   inkscape:export-filename="ironcore-stacked-color.png"
   inkscape:export-xdpi="96"
   inkscape:export-ydpi="96"
   inkscape:version="1.4.2 (ebf0e940, 2025-05-08)"
   xmlns:inkscape="http://www.inkscape.org/namespaces/inkscape"
   xmlns:sodipodi="http://sodipodi.sourceforge.net/DTD/sodipodi-0.dtd"
   xmlns:xlink="http://www.w3.org/1999/xlink"
   xmlns="http://www.w3.org/2000/svg"
   xmlns:svg="http://www.w3.org/2000/svg">
  <sodipodi:namedview
     id="namedview12"
     pagecolor="#ffffff"
     bordercolor="#000000"
     borderopacity="0.25"
     inkscape:showpageshadow="2"
     inkscape:pageopacity="0.0"
     inkscape:pagecheckerboard="0"
     inkscape:deskcolor="#d1d1d1"
     inkscape:zoom="0.065"
     inkscape:cx="192.30769"
     inkscape:cy="192.30769"
     inkscape:current-layer="svg12" />
  <defs
     id="defs1">
    <rect
       id="path-1he0h8_xwz-1"
       x="0"
       y="0"
       width="390"
       height="390"
       rx="8" />
  </defs>
  <g
     id="Page-1"
     stroke="none"
     stroke-width="1"
     fill="none"
     fill-rule="evenodd">
    <g
       id="ironcore">
      <rect
         id="Rectangle"
         fill="#FFFFFF"
         fill-rule="nonzero"
         x="0"
         y="0"
         width="400"
         height="400" />
      <g
         id="g2"
         transform="translate(5.000000, 5.000000)">
        <g
           id="Mask"
           fill="#0077BA"
           fill-rule="nonzero">
          <rect
             id="path-3ulh_37f8a-1"
             x="0"
             y="0"
             width="390"
             height="390"
             rx="8" />
        </g>
        <g
           id="Clipped">
          <mask
             id="mask-1he0h8_xwz-2"
             fill="white">
            <use
               xlink:href="#path-1he0h8_xwz-1"
               id="use1" />
          </mask>
          <g
             id="g1" />
          <polygon
             id="Path"
             fill="#004A82"
             fill-rule="nonzero"
             mask="url(#mask-1he0h8_xwz-2)"
             points="96.8292542 105.037109 96.8292542 199.713211 240.832532 199.713211 240.832532 250.638977 295.866455 250.638977 117.089996 390 0 390 0 181.018555" />
        </g>
      </g>
      <g
         id="Group"
         transform="translate(16.781250, 28.583984)">
        <g
           id="+1"
           transform="translate(329.205078, 0.421875)"
           fill="#FFFFFF"
           fill-rule="nonzero">
          <polygon
             id="polygon2"
             points="11.6542969 16.59375 18.4394531 16.59375 18.4394531 11.8476562 11.6542969 11.8476562 11.6542969 4.83398438 6.76757812 4.83398438 6.76757812 11.8476562 0 11.8476562 0 16.59375 6.76757812 16.59375 6.76757812 23.8007812 11.6542969 23.8007812" />
          <polygon
             id="polygon3"
             points="33.1875 23.9941406 33.1875 0 27.4746094 0 21.8144531 3.99023438 21.8144531 9.08789062 27.1933594 5.30859375 27.4746094 5.30859375 27.4746094 23.9941406" />
        </g>
        <g
           id="Fe"
           transform="translate(85.048004, 81.453125)"
           fill="#FFFFFF"
           fill-rule="nonzero">
          <polygon
             id="polygon4"
             points="36.5869446 151.962891 36.5869446 94.6184692 95.3473206 94.6184692 95.3473206 66.1010742 36.5869446 66.1010742 36.5869446 29.3854065 101.207703 29.3854065 101.207703 0 0 0 0 151.962891" />
          <path
             d="M165.68443,154.144226 C174.474713,154.144226 182.068799,152.954117 188.466687,150.573898 C194.864575,148.19368 200.161069,145.031265 204.356168,141.086655 C208.551266,137.142044 211.759488,132.809525 213.980832,128.089096 C216.202176,123.368668 217.544781,118.668823 218.008649,113.989563 L185.761761,113.989563 C185.294415,116.928162 184.137646,119.450439 182.291455,121.556396 C180.445264,123.662354 178.109113,125.270233 175.283002,126.380035 C172.456891,127.489838 169.273602,128.044739 165.733136,128.044739 C159.625165,128.044739 154.476529,125.885727 150.287228,121.567703 C146.097928,117.24968 144.003278,111.305511 144.003278,103.735199 L144.003278,99.7447815 L218.80882,99.7447815 L218.80882,87.7874451 C218.80882,76.0875549 216.567471,65.9874268 212.084775,57.4870605 C207.602078,48.9866943 201.286237,42.4302216 193.13725,37.8176422 C184.988263,33.2050629 175.384473,30.8987732 164.325879,30.8987732 C153.890027,30.8987732 144.531796,33.0363312 136.251187,37.3114471 C127.970578,41.5865631 121.426572,47.905304 116.619168,56.2676697 C111.811765,64.6300354 109.408063,74.9678955 109.408063,87.28125 L109.408063,96.7719727 C109.408063,109.370605 111.771756,119.927353 116.499142,128.442215 C121.226529,136.957077 127.82359,143.369461 136.290326,147.679367 C144.757062,151.989273 154.555096,154.144226 165.68443,154.144226 Z M144.003278,79.2882385 C144.003278,79.2615662 144.003278,79.2418518 144.003278,79.2290955 C144.003278,79.2163391 144.003278,79.1972046 144.003278,79.1716919 C144.003278,74.7661133 144.866071,70.8339691 146.591656,67.3752594 C148.317242,63.9165497 150.725583,61.1898804 153.816678,59.1952515 C156.907773,57.2006226 160.507092,56.2033081 164.614636,56.2033081 C168.696667,56.2033081 172.247281,57.2006226 175.266476,59.1952515 C178.285672,61.1898804 180.628201,63.9165497 182.294064,67.3752594 C183.959927,70.8339691 184.792859,74.7661133 184.792859,79.1716919 C184.792859,79.1972046 184.792859,79.2163391 184.792859,79.2290955 C184.792859,79.2418518 184.792859,79.2615662 184.792859,79.2882385 L144.003278,79.2882385 Z"
             id="Shape" />
        </g>
        <g
           id="26"
           transform="translate(0.310547, 0.000000)"
           fill="#FFFFFF"
           fill-rule="nonzero">
          <path
             d="M5.43164062,7.91015625 C5.43164062,7.82226562 5.43164062,7.6640625 5.43164062,7.54101562 C5.43164062,5.94140625 6.57421875,4.5 8.5078125,4.5 C10.265625,4.5 11.5839844,5.765625 11.5839844,7.3828125 C11.5839844,9.2109375 10.1953125,10.6699219 8.94726562,11.953125 L0.333984375,20.8652344 L0.333984375,24.4160156 L17.6308594,24.4160156 L17.6308594,19.8457031 L8.13867188,19.8457031 L8.13867188,19.5820312 L12.9726562,14.4316406 C14.9414062,12.3574219 17.2617188,10.3007812 17.2617188,6.80273437 C17.2617188,2.93554688 13.8691406,0 8.61328125,0 C2.65429688,0 0,3.91992188 0,7.59375 L0,7.91015625 L5.43164062,7.91015625 Z"
             id="path4" />
          <path
             d="M40.0078125,6.38085937 C39.8496094,3.48046875 37.125,0.017578125 31.5,0.017578125 C25.2949219,0.017578125 21.4804688,4.30664062 21.4804688,12.8320312 C21.4804688,16.2773438 22.1660156,18.8613281 23.3085938,20.7421875 C25.0839844,23.6601562 28.0019531,24.8554688 31.2890625,24.8554688 C36.5976562,24.8554688 40.5,21.7265625 40.5,16.3476562 C40.5,11.25 36.7910156,8.66601562 32.9414062,8.66601562 C29.8652344,8.66601562 28.1074219,10.2128906 27.3515625,11.8300781 L27,11.8300781 C26.8417969,7.98046875 28.4238281,4.44726562 31.4648438,4.44726562 C33.1699219,4.44726562 34.2421875,5.36132812 34.6113281,6.38085937 L40.0078125,6.38085937 Z M27.6152344,16.5761719 C27.6152344,14.3613281 29.0917969,12.796875 31.3066406,12.796875 C33.3457031,12.796875 34.9628906,14.1679688 34.9628906,16.5761719 C34.9628906,19.0722656 33.4335938,20.4433594 31.2890625,20.4433594 C29.1796875,20.4433594 27.6152344,18.9492188 27.6152344,16.5761719 Z"
             id="path5" />
        </g>
        <g
           id="55.8457"
           transform="translate(0.000000, 328.091797)"
           fill="#FFFFFF"
           fill-rule="nonzero">
          <path
             d="M0,12.5976562 C0.15234375,14.9414062 2.26171875,16.6523438 5.21484375,16.6523438 C8.58984375,16.6523438 10.8867188,14.4023438 10.8867188,11.0976562 C10.8867188,7.86328125 8.56640625,5.94140625 5.77734375,5.94140625 C4.0078125,5.94140625 2.89453125,6.796875 2.56640625,7.3125 L2.44921875,7.3125 L2.8828125,2.19140625 L10.0898438,2.19140625 L10.0898438,0.328125 L1.0546875,0.328125 L0.33984375,9.515625 L2.16796875,9.515625 C2.6015625,8.73046875 3.65625,7.7578125 5.30859375,7.7578125 C7.11328125,7.7578125 8.71875,9.046875 8.71875,11.15625 C8.71875,13.546875 6.984375,14.8242188 5.34375,14.8242188 C3.87890625,14.8242188 2.37890625,14.1914062 2.0625,12.5976562 L0,12.5976562 Z"
             id="path6" />
          <path
             d="M14.0390625,12.5976562 C14.1914062,14.9414062 16.3007812,16.6523438 19.2539062,16.6523438 C22.6289062,16.6523438 24.9257812,14.4023438 24.9257812,11.0976562 C24.9257812,7.86328125 22.6054688,5.94140625 19.8164062,5.94140625 C18.046875,5.94140625 16.9335938,6.796875 16.6054688,7.3125 L16.4882812,7.3125 L16.921875,2.19140625 L24.1289062,2.19140625 L24.1289062,0.328125 L15.09375,0.328125 L14.3789062,9.515625 L16.2070312,9.515625 C16.640625,8.73046875 17.6953125,7.7578125 19.3476562,7.7578125 C21.1523438,7.7578125 22.7578125,9.046875 22.7578125,11.15625 C22.7578125,13.546875 21.0234375,14.8242188 19.3828125,14.8242188 C17.9179688,14.8242188 16.4179688,14.1914062 16.1015625,12.5976562 L14.0390625,12.5976562 Z"
             id="path7" />
          <path
             d="M27.7851562,14.8828125 C27.7851562,15.8320312 28.5351562,16.5351562 29.4609375,16.5351562 C30.4335938,16.5351562 31.171875,15.8320312 31.171875,14.8828125 C31.171875,13.8867188 30.4335938,13.1835938 29.4609375,13.1835938 C28.5351562,13.1835938 27.7851562,13.8867188 27.7851562,14.8828125 Z"
             id="path8" />
          <path
             d="M40.1835938,16.6523438 C43.5234375,16.6523438 45.9257812,14.7304688 45.9257812,11.9414062 C45.9257812,9.45703125 44.0507812,8.26171875 42.6914062,7.93359375 L42.6914062,7.828125 C43.7695312,7.4765625 45.3164062,6.3984375 45.3164062,4.265625 C45.3164062,1.79296875 43.1835938,0 40.2421875,0 C37.3007812,0 35.1679688,1.79296875 35.1679688,4.265625 C35.1679688,6.36328125 36.6445312,7.453125 37.7695312,7.828125 L37.7695312,7.93359375 C36.4335938,8.26171875 34.5351562,9.4453125 34.5351562,11.9648438 C34.5351562,14.7539062 36.8671875,16.6523438 40.1835938,16.6523438 Z M40.2421875,7.11328125 C38.5195312,7.11328125 37.2421875,6.01171875 37.2421875,4.4296875 C37.2421875,2.84765625 38.5195312,1.79296875 40.2421875,1.79296875 C41.9765625,1.79296875 43.21875,2.84765625 43.21875,4.4296875 C43.21875,6.01171875 41.9765625,7.11328125 40.2421875,7.11328125 Z M40.2421875,14.8828125 C38.203125,14.8828125 36.6445312,13.6640625 36.6445312,11.8710938 C36.6445312,10.078125 38.203125,8.8359375 40.2421875,8.8359375 C42.28125,8.8359375 43.8164062,10.078125 43.8164062,11.8710938 C43.8164062,13.6640625 42.28125,14.8828125 40.2421875,14.8828125 Z"
             id="path9" />
          <path
             d="M55.1601562,0.328125 C52.8867188,3.9375 50.5078125,7.546875 48.515625,11.15625 L48.515625,13.0429688 L56.2851562,13.0429688 L56.2851562,16.3242188 L58.3476562,16.3242188 L58.3476562,13.0429688 L60.421875,13.0429688 L60.421875,11.1679688 L58.3476562,11.1679688 L58.3476562,0.328125 L55.1601562,0.328125 Z M50.6484375,11.1679688 L50.6484375,11.0625 C52.3242188,8.12109375 54.3046875,4.96875 56.1679688,2.1796875 L56.2851562,2.1796875 L56.2851562,11.1679688 L50.6484375,11.1679688 Z"
             id="path10" />
          <path
             d="M63.1992188,12.5976562 C63.3515625,14.9414062 65.4609375,16.6523438 68.4140625,16.6523438 C71.7890625,16.6523438 74.0859375,14.4023438 74.0859375,11.0976562 C74.0859375,7.86328125 71.765625,5.94140625 68.9765625,5.94140625 C67.2070312,5.94140625 66.09375,6.796875 65.765625,7.3125 L65.6484375,7.3125 L66.0820312,2.19140625 L73.2890625,2.19140625 L73.2890625,0.328125 L64.2539062,0.328125 L63.5390625,9.515625 L65.3671875,9.515625 C65.8007812,8.73046875 66.8554688,7.7578125 68.5078125,7.7578125 C70.3125,7.7578125 71.9179688,9.046875 71.9179688,11.15625 C71.9179688,13.546875 70.1835938,14.8242188 68.5429688,14.8242188 C67.078125,14.8242188 65.578125,14.1914062 65.2617188,12.5976562 L63.1992188,12.5976562 Z"
             id="path11" />
          <polygon
             id="polygon11"
             points="76.59375 0.328125 76.59375 2.203125 84.6445312 2.203125 84.6445312 2.33203125 78.0234375 16.3242188 80.2851562 16.3242188 86.8359375 2.2734375 86.8359375 0.328125" />
        </g>
        <text
           id="IronCore"
           font-family="Helvetica-Bold, Helvetica"
           font-size="36"
           font-weight="bold"><tspan
             x="0"
             y="314.15625"
             fill="#FFFFFF"
             id="tspan11">Iron</tspan><tspan
             x="67.9921875"
             y="314.15625"
             fill="#0077BA"
             fill-opacity="0.800945149"
             id="tspan12">Core</tspan></text>
      </g>
    </g>
  </g>
</svg>

<?xml version="1.0" encoding="UTF-8" standalone="no"?>
<svg
   width="390"
   height="390"
   viewBox="0 0 390 390"
   version="1.1"
   id="svg12"
   sodipodi:docname="ironcore-stacked-color.svg"
   inkscape:export-filename="ironcore-stacked-color.png"
   inkscape:export-xdpi="96"
   inkscape:export-ydpi="96"
   inkscape:version="1.4.3 (0d15f75, 2025-12-25)"
   xmlns:inkscape="http://www.inkscape.org/namespaces/inkscape"
   xmlns:sodipodi="http://sodipodi.sourceforge.net/DTD/sodipodi-0.dtd"
   xmlns:xlink="http://www.w3.org/1999/xlink"
   xmlns="http://www.w3.org/2000/svg"
   xmlns:svg="http://www.w3.org/2000/svg">
  <sodipodi:namedview
     id="namedview12"
     pagecolor="#ffffff"
     bordercolor="#000000"
     borderopacity="0.25"
     inkscape:showpageshadow="2"
     inkscape:pageopacity="0.0"
     inkscape:pagecheckerboard="0"
     inkscape:deskcolor="#d1d1d1"
     inkscape:zoom="0.84"
     inkscape:cx="186.30952"
     inkscape:cy="186.30952"
     inkscape:current-layer="svg12" />
  <defs
     id="defs1">
    <rect
       id="path-1he0h8_xwz-1"
       x="0"
       y="0"
       width="390"
       height="390"
       rx="8" />
  </defs>
  <g
     id="Page-1"
     stroke="none"
     stroke-width="1"
     fill="none"
     fill-rule="evenodd"
     transform="translate(-5,-5)">
    <g
       id="ironcore">
      <g
         id="g2"
         transform="translate(5,5)">
        <g
           id="Mask"
           fill="#0077ba"
           fill-rule="nonzero">
          <rect
             id="path-3ulh_37f8a-1"
             x="0"
             y="0"
             width="390"
             height="390"
             rx="8" />
        </g>
        <g
           id="Clipped">
          <mask
             id="mask-1he0h8_xwz-2"
             fill="#ffffff">
            <use
               xlink:href="#path-1he0h8_xwz-1"
               id="use1" />
          </mask>
          <g
             id="g1" />
          <polygon
             id="Path"
             fill="#004a82"
             fill-rule="nonzero"
             mask="url(#mask-1he0h8_xwz-2)"
             points="240.83253,199.71321 240.83253,250.63898 295.86645,250.63898 117.09,390 0,390 0,181.01855 96.829254,105.03711 96.829254,199.71321 " />
        </g>
      </g>
      <g
         id="Group"
         transform="translate(16.78125,28.583984)">
        <g
           id="+1"
           transform="translate(329.20508,0.421875)"
           fill="#ffffff"
           fill-rule="nonzero">
          <polygon
             id="polygon2"
             points="18.439453,11.847656 11.654297,11.847656 11.654297,4.8339844 6.7675781,4.8339844 6.7675781,11.847656 0,11.847656 0,16.59375 6.7675781,16.59375 6.7675781,23.800781 11.654297,23.800781 11.654297,16.59375 18.439453,16.59375 " />
          <polygon
             id="polygon3"
             points="27.474609,0 21.814453,3.9902344 21.814453,9.0878906 27.193359,5.3085938 27.474609,5.3085938 27.474609,23.994141 33.1875,23.994141 33.1875,0 " />
        </g>
        <g
           id="Fe"
           transform="translate(85.048004,81.453125)"
           fill="#ffffff"
           fill-rule="nonzero">
          <polygon
             id="polygon4"
             points="95.347321,94.618469 95.347321,66.101074 36.586945,66.101074 36.586945,29.385406 101.2077,29.385406 101.2077,0 0,0 0,151.96289 36.586945,151.96289 36.586945,94.618469 " />
          <path
             d="m 165.68443,154.14423 c 8.79028,0 16.38437,-1.19011 22.78226,-3.57033 6.39788,-2.38022 11.69438,-5.54264 15.88948,-9.48725 4.1951,-3.94461 7.40332,-8.27713 9.62466,-12.99755 2.22135,-4.72043 3.56395,-9.42028 4.02782,-14.09954 h -32.24689 c -0.46735,2.9386 -1.62411,5.46088 -3.4703,7.56684 -1.8462,2.10595 -4.18235,3.71383 -7.00846,4.82364 -2.82611,1.1098 -6.0094,1.6647 -9.54986,1.6647 -6.10798,0 -11.25661,-2.15901 -15.44591,-6.47704 -4.1893,-4.31802 -6.28395,-10.26219 -6.28395,-17.8325 v -3.990418 h 74.80554 V 87.787445 c 0,-11.69989 -2.24135,-21.800018 -6.72405,-30.300385 -4.48269,-8.500366 -10.79853,-15.056838 -18.94752,-19.669418 -8.14899,-4.612579 -17.75278,-6.918869 -28.81137,-6.918869 -10.43585,0 -19.79408,2.137558 -28.07469,6.412674 -8.28061,4.275116 -14.82462,10.593857 -19.63202,18.956223 -4.80741,8.362365 -7.21111,18.700225 -7.21111,31.01358 v 9.490723 c 0,12.598627 2.3637,23.155377 7.09108,31.670237 4.72739,8.51487 11.32445,14.92725 19.79119,19.23716 8.46673,4.3099 18.26477,6.46486 29.3941,6.46486 z M 144.00328,79.288239 c 0,-0.02667 0,-0.04639 0,-0.05914 0,-0.01276 0,-0.03189 0,-0.0574 0,-4.405579 0.86279,-8.337723 2.58838,-11.796433 1.72558,-3.458709 4.13392,-6.185379 7.22502,-8.180008 3.09109,-1.994628 6.69041,-2.991943 10.79796,-2.991943 4.08203,0 7.63264,0.997315 10.65184,2.991943 3.01919,1.994629 5.36172,4.721299 7.02758,8.180008 1.66587,3.45871 2.4988,7.390854 2.4988,11.796433 0,0.02551 0,0.04465 0,0.0574 0,0.01276 0,0.03247 0,0.05914 z"
             id="Shape" />
        </g>
        <g
           id="26"
           transform="translate(0.310547)"
           fill="#ffffff"
           fill-rule="nonzero">
          <path
             d="m 5.4316406,7.9101562 c 0,-0.087891 0,-0.2460937 0,-0.3691406 C 5.4316406,5.9414062 6.5742187,4.5 8.5078125,4.5 c 1.7578125,0 3.0761715,1.265625 3.0761715,2.8828125 0,1.828125 -1.388671,3.2871095 -2.6367184,4.5703125 l -8.61328122,8.912109 v 3.550782 H 17.630859 V 19.845703 H 8.1386719 v -0.263672 l 4.8339841,-5.15039 c 1.96875,-2.074219 4.289063,-4.13086 4.289063,-7.6289066 C 17.261719,2.9355469 13.869141,0 8.6132813,0 2.6542969,0 0,3.9199219 0,7.59375 v 0.3164062 z"
             id="path4" />
          <path
             d="M 40.007812,6.3808594 C 39.849609,3.4804688 37.125,0.01757813 31.5,0.01757813 c -6.205078,0 -10.019531,4.28906247 -10.019531,12.81445287 0,3.445313 0.685547,6.029297 1.828125,7.910156 1.77539,2.917969 4.693359,4.113282 7.980468,4.113282 5.308594,0 9.210938,-3.128907 9.210938,-8.507813 0,-5.097656 -3.708984,-7.6816404 -7.558594,-7.6816404 -3.076172,0 -4.833984,1.5468754 -5.589844,3.1640624 H 27 c -0.158203,-3.8496093 1.423828,-7.3828124 4.464844,-7.3828124 1.705078,0 2.777343,0.9140625 3.146484,1.9335938 z M 27.615234,16.576172 c 0,-2.214844 1.476563,-3.779297 3.691407,-3.779297 2.039062,0 3.65625,1.371094 3.65625,3.779297 0,2.496094 -1.529297,3.867187 -3.673829,3.867187 -2.109375,0 -3.673828,-1.49414 -3.673828,-3.867187 z"
             id="path5" />
        </g>
        <g
           id="55.8457"
           transform="translate(0,328.0918)"
           fill="#ffffff"
           fill-rule="nonzero">
          <path
             d="m 0,12.597656 c 0.15234375,2.34375 2.2617188,4.054688 5.2148437,4.054688 3.3750001,0 5.6718753,-2.25 5.6718753,-5.554688 0,-3.2343748 -2.3203127,-5.1562498 -5.1093753,-5.1562498 -1.7695312,0 -2.8828124,0.8554688 -3.2109374,1.3710938 H 2.4492188 L 2.8828125,2.1914063 H 10.089844 V 0.328125 H 1.0546875 l -0.71484375,9.1875 H 2.1679688 C 2.6015625,8.7304688 3.65625,7.7578125 5.3085937,7.7578125 c 1.8046875,0 3.4101563,1.2890625 3.4101563,3.3984375 0,2.390625 -1.734375,3.667969 -3.375,3.667969 -1.4648437,0 -2.9648437,-0.632813 -3.28125,-2.226563 z"
             id="path6" />
          <path
             d="m 14.039063,12.597656 c 0.152343,2.34375 2.261718,4.054688 5.214843,4.054688 3.375,0 5.671875,-2.25 5.671875,-5.554688 0,-3.2343748 -2.320312,-5.1562498 -5.109375,-5.1562498 -1.769531,0 -2.882812,0.8554688 -3.210937,1.3710938 h -0.117188 l 0.433594,-5.1210937 h 7.207031 V 0.328125 H 15.09375 l -0.714844,9.1875 h 1.828125 c 0.433594,-0.7851562 1.488281,-1.7578125 3.140625,-1.7578125 1.804688,0 3.410156,1.2890625 3.410156,3.3984375 0,2.390625 -1.734375,3.667969 -3.375,3.667969 -1.464843,0 -2.964843,-0.632813 -3.28125,-2.226563 z"
             id="path7" />
          <path
             d="m 27.785156,14.882813 c 0,0.949218 0.75,1.652343 1.675781,1.652343 0.972657,0 1.710938,-0.703125 1.710938,-1.652343 0,-0.996094 -0.738281,-1.699219 -1.710938,-1.699219 -0.925781,0 -1.675781,0.703125 -1.675781,1.699219 z"
             id="path8" />
          <path
             d="m 40.183594,16.652344 c 3.339843,0 5.742187,-1.921875 5.742187,-4.710938 0,-2.4843747 -1.875,-3.6796872 -3.234375,-4.0078123 V 7.828125 c 1.078125,-0.3515625 2.625,-1.4296875 2.625,-3.5625 C 45.316406,1.7929687 43.183594,0 40.242187,0 c -2.941406,0 -5.074218,1.7929687 -5.074218,4.265625 0,2.0976562 1.476562,3.1875 2.601562,3.5625 v 0.1054687 c -1.335937,0.3281251 -3.234375,1.5117188 -3.234375,4.0312503 0,2.789062 2.332031,4.6875 5.648438,4.6875 z m 0.05859,-9.5390628 c -1.722656,0 -3,-1.1015625 -3,-2.6835937 0,-1.5820312 1.277344,-2.6367188 3,-2.6367188 1.734375,0 2.976563,1.0546876 2.976563,2.6367188 0,1.5820312 -1.242188,2.6835937 -2.976563,2.6835937 z m 0,7.7695318 c -2.039062,0 -3.597656,-1.21875 -3.597656,-3.011719 0,-1.792969 1.558594,-3.0351565 3.597656,-3.0351565 2.039063,0 3.574219,1.2421875 3.574219,3.0351565 0,1.792969 -1.535156,3.011719 -3.574219,3.011719 z"
             id="path9" />
          <path
             d="M 55.160156,0.328125 C 52.886719,3.9375 50.507812,7.546875 48.515625,11.15625 v 1.886719 h 7.769531 v 3.28125 h 2.0625 v -3.28125 h 2.074219 v -1.875 H 58.347656 V 0.328125 Z M 50.648437,11.167969 V 11.0625 c 1.675782,-2.9414062 3.65625,-6.09375 5.519532,-8.8828125 h 0.117187 v 8.9882815 z"
             id="path10" />
          <path
             d="m 63.199219,12.597656 c 0.152343,2.34375 2.261718,4.054688 5.214843,4.054688 3.375,0 5.671875,-2.25 5.671875,-5.554688 0,-3.2343748 -2.320312,-5.1562498 -5.109375,-5.1562498 -1.769531,0 -2.882812,0.8554688 -3.210937,1.3710938 h -0.117188 l 0.433594,-5.1210937 h 7.207031 V 0.328125 h -9.035156 l -0.714844,9.1875 h 1.828125 c 0.433594,-0.7851562 1.488282,-1.7578125 3.140625,-1.7578125 1.804688,0 3.410157,1.2890625 3.410157,3.3984375 0,2.390625 -1.734375,3.667969 -3.375,3.667969 -1.464844,0 -2.964844,-0.632813 -3.28125,-2.226563 z"
             id="path11" />
          <polygon
             id="polygon11"
             points="84.644531,2.203125 84.644531,2.3320312 78.023438,16.324219 80.285156,16.324219 86.835938,2.2734375 86.835938,0.328125 76.59375,0.328125 76.59375,2.203125 " />
        </g>
        <text
           id="IronCore"
           font-family="Helvetica-Bold, Helvetica"
           font-size="36px"
           font-weight="bold"><tspan
             x="0"
             y="314.15625"
             fill="#ffffff"
             id="tspan11">Iron</tspan><tspan
             x="67.992188"
             y="314.15625"
             fill="#0077ba"
             fill-opacity="0.800945"
             id="tspan12">Core</tspan></text>
      </g>
    </g>
  </g>
</svg>
